X:1
T:Brich an, o schönes Morgenlicht
T:Brich an, o schönes Morgenlicht
T:J. S. Bach
C:J. S. Bach
%%score [ 1 2 3 4 ]
L:1/8
Q:1/4=70
M:4/4
K:F
V:1 treble nm="Soprano"
V:2 treble nm="Alto"
V:3 treble-8 nm="Tenor"
V:4 bass nm="Bass"
V:1
 F2 | F2 G2 (A=B) c2 | c2 =B2 c2 A2 | B2 A2 G2 A2 | G4 F2 :| G2 | G2 A2 B2 B2 | (AG) A2 G2 A2 | %8
w: Brich|an, o schö- * nes|Mor- gen- licht, und|lass den Him- mel|ta- gen!|dass|die- ses schwa- che|Knä- * be- lein soll|
w: Du|Hir- ten- volk, _ er-|schre- cke nicht, weil|dir die En- gel|sa- gen||||
 A2 A2 (Bc) d2 | d2 ^c2 d2 e2 | f2 A2 B2 A2 | G4 G2 c2 | d2 c2 B2 (AB) | G4 F2 |] %14
w: un- ser Trost _ und|Freu- de sein, da-|zu den Sa- tan|zwin- gen und|letzt- lich Frie- den _|brin- gen.|
w: ||||||
V:2
 C2 | C2 E2 (CD) E2 | (DE) F2 E2 E2 | D2 (CD) E2 F2 | (F2 E2) C2 :| (EF) | G3 ^F (GF) G2 | %7
w: Brich|an, o schö- * nes|Mor- * gen- licht, und|lass den _ Him- mel|ta- * gen!|dass _|die- sess schwa- * che|
w: Du|Hir- ten- volk, _ er-|schre- * cke nicht, weil|dir die _ En- gel|sa- * gen|||
 G2 ^F2 D2 (D^C) | D2 D2 (DE) (=FE) | (EF) G2 F2 G2 | (FG) A2 (AG) (GF) | F4 E2 (FE) | %12
w: Knä- be- lein soll _|un- ser Trost _ und _|Freu- * de sein, da-|zu _ den Sa- * tan _|zwin- gen und _|
w: |||||
 D2 E2 (FG) C2 | (D2 C2) C2 |] %14
w: letzt- lich Frie- * den|brin- * gen.|
w: ||
V:3
 A2 | (A B2) c (AG) G2 | G2 G2 G2 (AG) | (FG) (AB) c2 c2 | (c3 B) A2 :| (cd) | (ed) c2 d2 e2 | %7
w: Brich|an, _ o schö- * nes|Mor- gen- licht, und _|lass _ den _ Him- mel|ta- * gen!|dass _|die- * ses schwa- che|
w: Du|Hir- * ten- volk, _ er-|schre- cke nicht, weil _|dir _ die _ En- gel|sa- * gen|||
 A2 (dc) B2 (FG) | (AB) (cd) B2 =B2 | A2 A2 A2 c2 | c2 f2 (FG) A2 | (dcd=B) c2 c2 | %12
w: Knä- be- * lein soll _|un- * ser _ Trost und|Freu- de sein, da-|zu den Sa- * tan|zwin- * * * gen und|
w: |||||
 (c_B) (BA) (AG) F2 | (FE/D/ E2) A2 |] %14
w: letzt- * lich _ Frie- * den|brin- * * * gen.|
w: ||
V:4
 (F,E,) | D,2 C,2 F,2 (E,F,) | G,2 G,,2 C,2 ^C,2 | (D,E,) (F,B,,) (B,A,) (G,F,) | (C2 C,2) F,2 :| %5
w: Brich _|an, o schö- nes _|Mor- gen- licht, und|lass _ den _ Him- * mel _|ta- * gen!|
 C,2 | (CB,) A,2 G,2 ^C,2 | D,2 D,2 G,,2 (D,E,) | F,2 ^F,2 G,2 ^G,2 | A,2 A,,2 D,2 (CB,) | %10
w: dass|die- * ses schwa- che|Knä- be- lein soll _|un- ser Trost und|Freu- de sein, da- *|
 (A,G,) (F,E,) (D,E,) (F,D,) | (=B,,A,,B,,G,,) C,2 A,,2 | _B,,2 C,2 (D,E,) F,2 | (B,,2 C,2) F,,2 |] %14
w: zu _ den _ Sa- * tan _|zwin- * * * gen und|letzt- lich Frie- * den|brin- * gen.|

